X: 10
T: Toss The Feathers
R: reel
M: 4/4
L: 1/8
K: Dmix
|: D2 D2 AD D2 | ABcA GE E2 | D2 D2 AD D2 | defd cAGE|
D2 D2 AD D2 | ABcA GE E2 | cABG A2 (3ABc | d2 ed cAGE :||
|:Ad d2 Ad d2 | Ad d2 ed (3B^cd | eaag a3g | eaag ed (3B^cd|
ef (3gfe af (3gfe |f3d dcAB  | cABG A2 (3ABc | d2 ed cAGE :||


Tune 113	Setting 12701

